Newaita-dark/apps/22/devhelp.svg

<svg height="22" viewBox="0 0 22 22" width="22" xmlns="http://www.w3.org/2000/svg" xmlns:xlink="http://www.w3.org/1999/xlink"><linearGradient id="a" gradientUnits="userSpaceOnUse" x1="10.9151136" x2="10.9151136" y1="19.27333715" y2="20.18293042919"><stop offset="0" stop-opacity=".27451"/><stop offset="1" stop-opacity="0"/></linearGradient><linearGradient id="b"><stop offset="0" stop-opacity=".313726"/><stop offset=".222222" stop-opacity=".27451"/><stop offset="1" stop-opacity="0"/></linearGradient><radialGradient id="c" cx="450.908936" cy="189.579361" gradientTransform="matrix(.00000012 -.0537161 -.0966889 -.00000007 34.475434 43.721791)" gradientUnits="userSpaceOnUse" r="21.166656" xlink:href="#b"/><radialGradient id="d" cx="450.908936" cy="189.579361" gradientTransform="matrix(-.00000012 .0537161 .0966889 .00000007 -12.645221 -5.175143)" gradientUnits="userSpaceOnUse" r="21.166656" xlink:href="#b"/><radialGradient id="e" cx="450.908936" cy="189.579361" gradientTransform="matrix(-.00000012 -.0537161 .0966889 -.00000007 -12.645221 43.721791)" gradientUnits="userSpaceOnUse" r="21.166656" xlink:href="#b"/><radialGradient id="f" cx="450.908936" cy="189.579361" gradientTransform="matrix(.00000012 .0537161 -.0966889 .00000007 34.475433 -5.175142)" gradientUnits="userSpaceOnUse" r="21.166656" xlink:href="#b"/><linearGradient id="g" gradientTransform="matrix(.0518029 0 0 .149471 -4.024634 23.128427)" gradientUnits="userSpaceOnUse" x1="306.916656" x2="305.954559" y1="-25.791676" y2="-141.414581"><stop offset="0" stop-color="#f44336"/><stop offset="1" stop-color="#ef5350"/></linearGradient><linearGradient id="h"><stop offset="0" stop-color="#424242"/><stop offset="1" stop-color="#616161"/></linearGradient><linearGradient id="i" gradientTransform="matrix(4.556143 0 0 13.146184 -353.972656 2034.180176)" gradientUnits="userSpaceOnUse" x1="165.484848" x2="165.484848" xlink:href="#h" y1="-25.791672" y2="-141.414581"/><linearGradient id="j" gradientUnits="userSpaceOnUse" x1="275.166321" x2="275.166321" xlink:href="#h" y1="233.49969318561" y2="-168.66647475188"/><linearGradient id="k" gradientUnits="userSpaceOnUse" x1="4.54796570838" x2="4.54796570838" xlink:href="#h" y1="7.22124061432" y2="6.31164763595"/><linearGradient id="l" gradientUnits="userSpaceOnUse" x1="4.54796570838" x2="4.54796570838" xlink:href="#h" y1="14.72537561432" y2="13.81578263595"/><path d="m5.457031 19.273438h10.914063v.910156h-10.914063zm0 0" fill="url(#a)"/><path d="m16.371094 19.273438h1.820312v-.910157h-1.820312zm0 0" fill="url(#c)"/><path d="m5.457031 19.273438h-1.820312v.910156h1.820312zm0 0" fill="url(#d)"/><path d="m5.457031 19.273438h-1.820312v-.910157h1.820312zm0 0" fill="url(#e)"/><path d="m16.371094 19.273438h1.820312v.910156h-1.820312zm0 0" fill="url(#f)"/><path d="m4.546875 1.992188h12.734375c.503906 0 .910156.40625.910156.910156v15.460937c0 .503907-.40625.910157-.910156.910157h-12.734375c-.5 0-.910156-.40625-.910156-.910157v-15.460937c0-.503906.410156-.910156.910156-.910156zm0 0" fill="url(#g)"/><path d="m399.904566 175.215918c-44.31932 0-80.049625 35.730305-80.049625 80.049626v1359.81295c0 44.31932 35.730305 80.049625 80.049625 80.049625h120.246219v-1519.912201zm0 0" fill="url(#i)" stroke="#212121" stroke-linecap="round" stroke-width="11.338583" transform="scale(.0113699)"/><path d="m4.546875 19.273438c-.503906 0-.910156-.40625-.910156-.910157v-.113281c0 .503906.40625.910156.910156.910156h12.734375c.503906 0 .910156-.40625.910156-.910156v.113281c0 .503907-.40625.910157-.910156.910157zm0 0" fill-opacity=".196078"/><path d="m4.546875 1.992188c-.503906 0-.910156.40625-.910156.910156v.113281c0-.503906.40625-.910156.910156-.910156h12.734375c.503906 0 .910156.40625.910156.910156v-.113281c0-.503906-.40625-.910156-.910156-.910156zm0 0" fill="#e6e6e6" fill-opacity=".937239"/><path d="m4.546875 1.925781c-.539063 0-.972656.4375-.972656.976563v15.460937c0 .539063.433593.972657.972656.972657h12.734375c.539062 0 .976562-.433594.976562-.972657v-15.460937c0-.539063-.4375-.976563-.976562-.976563zm0 .128907h12.734375c.46875 0 .847656.375.847656.847656v15.460937c0 .46875-.378906.84375-.847656.84375h-12.734375c-.46875 0-.84375-.375-.84375-.84375v-15.460937c0-.472656.375-.847656.84375-.847656zm0 0" fill="#212121"/><path d="m8.640625 7.449219v6.820312h5.003906c.503907 0 .910157-.40625.910157-.910156v-5c0-.503906-.40625-.910156-.910157-.910156zm1.136719 1.136719h3.183594c.253906 0 .457031.203124.457031.453124v3.589844c0 .25-.203125.453125-.457031.453125h-3.183594zm0 0" fill="#eee" fill-opacity=".995816"/><path d="m8.640625 7.449219v.171875h5.003906c.503907 0 .910157.402344.910157.90625v-.167969c0-.503906-.40625-.910156-.910157-.910156zm4.777344 5.179687c0 .25-.203125.453125-.457031.453125h-3.183594v.171875h3.183594c.253906 0 .457031-.203125.457031-.457031zm0 0" fill="#fff" fill-opacity=".916129"/><path d="m9.777344 8.578125v.363281h3.183594c.253906 0 .457031.203125.457031.453125v-.359375c0-.253906-.203125-.457031-.457031-.457031zm4.777344 4.777344c0 .503906-.40625.910156-.910157.910156h-5.003906v.359375h5.003906c.503907 0 .910157-.40625.910157-.910156zm0 0" fill-opacity=".235294"/><path d="m759.956101 655.17011v599.85685h440.101159c44.319321 0 80.049625-35.730305 80.049625-80.049626v-439.757598c0-44.319321-35.730304-80.049626-80.049625-80.049626zm99.976141 99.976142h280.001909c22.33144 0 40.196593 17.865152 40.196593 39.853032v315.732214c0 21.98788-17.865153 39.853032-40.196593 39.853032h-280.001909zm0 0" fill="none" stroke="#212121" stroke-linecap="square" stroke-linejoin="bevel" stroke-width="11.338583" transform="scale(.0113699)"/><path d="m148.167669-147.460995v359.783824h243.431299c5.817626 0 10.544447-4.726821 10.544447-10.544448v-338.694929c0-5.908526-4.726821-10.544447-10.544447-10.544447zm0 0" style="fill:none;stroke-width:8;stroke-linecap:round;stroke-linejoin:round;stroke-dasharray:16 16;stroke-dashoffset:7.200001;stroke:url(#j)" transform="matrix(.0429729 0 0 .0429729 0 9.239163)"/><path d="m3.636719 6.3125h2.277343v.910156h-2.277343zm0 0" fill="url(#k)"/><path d="m3.636719 7.222656v.339844h2.277343v-.339844zm0 0" fill-opacity=".235294"/><path d="m3.636719 6.3125v.226562h2.277343v-.226562zm0 0" fill="#fff" fill-opacity=".392157"/><path d="m84.628282-20.480177h52.99494v21.179795h-52.99494zm0 0" fill="none" stroke="#212121" stroke-linecap="round" stroke-linejoin="round" stroke-width="3" transform="matrix(.0429729 0 0 .0429729 0 7.192592)"/><path d="m3.636719 13.816406h2.277343v.910156h-2.277343zm0 0" fill="url(#l)"/><path d="m3.636719 14.726562v.339844h2.277343v-.339844zm0 0" fill-opacity=".235294"/><path d="m3.636719 13.816406v.226563h2.277343v-.226563zm0 0" fill="#fff" fill-opacity=".392157"/><path d="m84.628282-20.485508h52.99494v21.179796h-52.99494zm0 0" fill="none" stroke="#212121" stroke-linecap="round" stroke-linejoin="round" stroke-width="3" transform="matrix(.0429729 0 0 .0429729 0 14.696727)"/></svg>

<?xml version="1.0" encoding="UTF-8"?>
<svg xmlns="http://www.w3.org/2000/svg" xmlns:xlink="http://www.w3.org/1999/xlink" width="22px" height="22px" viewBox="0 0 22 22" version="1.1">
<defs>
<linearGradient id="linear0" gradientUnits="userSpaceOnUse" x1="254" y1="233.5" x2="254" y2="254.666672" gradientTransform="matrix(0.0429729,0,0,0.0429729,-0.00000262285,9.239165)">
<stop offset="0" style="stop-color:rgb(0%,0%,0%);stop-opacity:0.27451;"/>
<stop offset="1" style="stop-color:rgb(0%,0%,0%);stop-opacity:0;"/>
</linearGradient>
<radialGradient id="radial0" gradientUnits="userSpaceOnUse" cx="450.908936" cy="189.579361" fx="450.908936" fy="189.579361" r="21.166656" gradientTransform="matrix(0.000000119742,-0.0537161,-0.0966889,-0.0000000698078,34.475434,43.721791)">
<stop offset="0" style="stop-color:rgb(0%,0%,0%);stop-opacity:0.313726;"/>
<stop offset="0.222222" style="stop-color:rgb(0%,0%,0%);stop-opacity:0.27451;"/>
<stop offset="1" style="stop-color:rgb(0%,0%,0%);stop-opacity:0;"/>
</radialGradient>
<radialGradient id="radial1" gradientUnits="userSpaceOnUse" cx="450.908936" cy="189.579361" fx="450.908936" fy="189.579361" r="21.166656" gradientTransform="matrix(-0.000000119742,0.0537161,0.0966889,0.0000000698078,-12.645221,-5.175143)">
<stop offset="0" style="stop-color:rgb(0%,0%,0%);stop-opacity:0.313726;"/>
<stop offset="0.222222" style="stop-color:rgb(0%,0%,0%);stop-opacity:0.27451;"/>
<stop offset="1" style="stop-color:rgb(0%,0%,0%);stop-opacity:0;"/>
</radialGradient>
<radialGradient id="radial2" gradientUnits="userSpaceOnUse" cx="450.908936" cy="189.579361" fx="450.908936" fy="189.579361" r="21.166656" gradientTransform="matrix(-0.000000119742,-0.0537161,0.0966889,-0.0000000698078,-12.645221,43.721791)">
<stop offset="0" style="stop-color:rgb(0%,0%,0%);stop-opacity:0.313726;"/>
<stop offset="0.222222" style="stop-color:rgb(0%,0%,0%);stop-opacity:0.27451;"/>
<stop offset="1" style="stop-color:rgb(0%,0%,0%);stop-opacity:0;"/>
</radialGradient>
<radialGradient id="radial3" gradientUnits="userSpaceOnUse" cx="450.908936" cy="189.579361" fx="450.908936" fy="189.579361" r="21.166656" gradientTransform="matrix(0.000000119742,0.0537161,-0.0966889,0.0000000698078,34.475433,-5.175142)">
<stop offset="0" style="stop-color:rgb(0%,0%,0%);stop-opacity:0.313726;"/>
<stop offset="0.222222" style="stop-color:rgb(0%,0%,0%);stop-opacity:0.27451;"/>
<stop offset="1" style="stop-color:rgb(0%,0%,0%);stop-opacity:0;"/>
</radialGradient>
<linearGradient id="linear1" gradientUnits="userSpaceOnUse" x1="306.916656" y1="-25.791676" x2="305.954559" y2="-141.414581" gradientTransform="matrix(0.0518029,0,0,0.149471,-4.024634,23.128427)">
<stop offset="0" style="stop-color:rgb(95.686275%,26.274511%,21.176471%);stop-opacity:1;"/>
<stop offset="1" style="stop-color:rgb(93.725491%,32.549021%,31.37255%);stop-opacity:1;"/>
</linearGradient>
<linearGradient id="linear2" gradientUnits="userSpaceOnUse" x1="165.484848" y1="-25.791672" x2="165.484848" y2="-141.414581" gradientTransform="matrix(4.556143,0,0,13.146184,-353.972656,2034.180176)">
<stop offset="0" style="stop-color:rgb(25.882354%,25.882354%,25.882354%);stop-opacity:1;"/>
<stop offset="1" style="stop-color:rgb(38.039216%,38.039216%,38.039216%);stop-opacity:1;"/>
</linearGradient>
<linearGradient id="linear3" gradientUnits="userSpaceOnUse" x1="1040" y1="1695.118164" x2="1040" y2="175.118134" gradientTransform="matrix(0.264583,0,0,0.264583,0.000000666667,-214.999756)">
<stop offset="0" style="stop-color:rgb(25.882354%,25.882354%,25.882354%);stop-opacity:1;"/>
<stop offset="1" style="stop-color:rgb(38.039216%,38.039216%,38.039216%);stop-opacity:1;"/>
</linearGradient>
<linearGradient id="linear4" gradientUnits="userSpaceOnUse" x1="105.833344" y1="0.666667" x2="105.833344" y2="-20.499998" gradientTransform="matrix(0.0429729,0,0,0.0429729,-0.0000000143243,7.192592)">
<stop offset="0" style="stop-color:rgb(25.882354%,25.882354%,25.882354%);stop-opacity:1;"/>
<stop offset="1" style="stop-color:rgb(38.039216%,38.039216%,38.039216%);stop-opacity:1;"/>
</linearGradient>
<linearGradient id="linear5" gradientUnits="userSpaceOnUse" x1="105.833344" y1="0.666667" x2="105.833344" y2="-20.499998" gradientTransform="matrix(0.0429729,0,0,0.0429729,-0.0000000143243,14.696727)">
<stop offset="0" style="stop-color:rgb(25.882354%,25.882354%,25.882354%);stop-opacity:1;"/>
<stop offset="1" style="stop-color:rgb(38.039216%,38.039216%,38.039216%);stop-opacity:1;"/>
</linearGradient>
</defs>
<g id="surface1">
<path style=" stroke:none;fill-rule:nonzero;fill:url(#linear0);" d="M 5.457031 19.273438 L 16.371094 19.273438 L 16.371094 20.183594 L 5.457031 20.183594 Z M 5.457031 19.273438 "/>
<path style=" stroke:none;fill-rule:nonzero;fill:url(#radial0);" d="M 16.371094 19.273438 L 18.191406 19.273438 L 18.191406 18.363281 L 16.371094 18.363281 Z M 16.371094 19.273438 "/>
<path style=" stroke:none;fill-rule:nonzero;fill:url(#radial1);" d="M 5.457031 19.273438 L 3.636719 19.273438 L 3.636719 20.183594 L 5.457031 20.183594 Z M 5.457031 19.273438 "/>
<path style=" stroke:none;fill-rule:nonzero;fill:url(#radial2);" d="M 5.457031 19.273438 L 3.636719 19.273438 L 3.636719 18.363281 L 5.457031 18.363281 Z M 5.457031 19.273438 "/>
<path style=" stroke:none;fill-rule:nonzero;fill:url(#radial3);" d="M 16.371094 19.273438 L 18.191406 19.273438 L 18.191406 20.183594 L 16.371094 20.183594 Z M 16.371094 19.273438 "/>
<path style=" stroke:none;fill-rule:nonzero;fill:url(#linear1);" d="M 4.546875 1.992188 L 17.28125 1.992188 C 17.785156 1.992188 18.191406 2.398438 18.191406 2.902344 L 18.191406 18.363281 C 18.191406 18.867188 17.785156 19.273438 17.28125 19.273438 L 4.546875 19.273438 C 4.046875 19.273438 3.636719 18.867188 3.636719 18.363281 L 3.636719 2.902344 C 3.636719 2.398438 4.046875 1.992188 4.546875 1.992188 Z M 4.546875 1.992188 "/>
<path style="fill-rule:nonzero;fill:url(#linear2);stroke-width:11.338583;stroke-linecap:round;stroke-linejoin:miter;stroke:rgb(12.941177%,12.941177%,12.941177%);stroke-opacity:1;stroke-miterlimit:4;" d="M 399.904566 175.215918 C 355.585246 175.215918 319.854941 210.946223 319.854941 255.265544 L 319.854941 1615.078494 C 319.854941 1659.397814 355.585246 1695.128119 399.904566 1695.128119 L 520.150785 1695.128119 L 520.150785 175.215918 Z M 399.904566 175.215918 " transform="matrix(0.0113699,0,0,0.0113699,0,0)"/>
<path style=" stroke:none;fill-rule:nonzero;fill:rgb(0%,0%,0%);fill-opacity:0.196078;" d="M 4.546875 19.273438 C 4.042969 19.273438 3.636719 18.867188 3.636719 18.363281 L 3.636719 18.25 C 3.636719 18.753906 4.042969 19.160156 4.546875 19.160156 L 17.28125 19.160156 C 17.785156 19.160156 18.191406 18.753906 18.191406 18.25 L 18.191406 18.363281 C 18.191406 18.867188 17.785156 19.273438 17.28125 19.273438 Z M 4.546875 19.273438 "/>
<path style=" stroke:none;fill-rule:nonzero;fill:rgb(90.196079%,90.196079%,90.196079%);fill-opacity:0.937239;" d="M 4.546875 1.992188 C 4.042969 1.992188 3.636719 2.398438 3.636719 2.902344 L 3.636719 3.015625 C 3.636719 2.511719 4.042969 2.105469 4.546875 2.105469 L 17.28125 2.105469 C 17.785156 2.105469 18.191406 2.511719 18.191406 3.015625 L 18.191406 2.902344 C 18.191406 2.398438 17.785156 1.992188 17.28125 1.992188 Z M 4.546875 1.992188 "/>
<path style=" stroke:none;fill-rule:nonzero;fill:rgb(12.941177%,12.941177%,12.941177%);fill-opacity:1;" d="M 4.546875 1.925781 C 4.007812 1.925781 3.574219 2.363281 3.574219 2.902344 L 3.574219 18.363281 C 3.574219 18.902344 4.007812 19.335938 4.546875 19.335938 L 17.28125 19.335938 C 17.820312 19.335938 18.257812 18.902344 18.257812 18.363281 L 18.257812 2.902344 C 18.257812 2.363281 17.820312 1.925781 17.28125 1.925781 Z M 4.546875 2.054688 L 17.28125 2.054688 C 17.75 2.054688 18.128906 2.429688 18.128906 2.902344 L 18.128906 18.363281 C 18.128906 18.832031 17.75 19.207031 17.28125 19.207031 L 4.546875 19.207031 C 4.078125 19.207031 3.703125 18.832031 3.703125 18.363281 L 3.703125 2.902344 C 3.703125 2.429688 4.078125 2.054688 4.546875 2.054688 Z M 4.546875 2.054688 "/>
<path style=" stroke:none;fill-rule:nonzero;fill:rgb(93.333334%,93.333334%,93.333334%);fill-opacity:0.995816;" d="M 8.640625 7.449219 L 8.640625 14.269531 L 13.644531 14.269531 C 14.148438 14.269531 14.554688 13.863281 14.554688 13.359375 L 14.554688 8.359375 C 14.554688 7.855469 14.148438 7.449219 13.644531 7.449219 Z M 9.777344 8.585938 L 12.960938 8.585938 C 13.214844 8.585938 13.417969 8.789062 13.417969 9.039062 L 13.417969 12.628906 C 13.417969 12.878906 13.214844 13.082031 12.960938 13.082031 L 9.777344 13.082031 Z M 9.777344 8.585938 "/>
<path style=" stroke:none;fill-rule:nonzero;fill:rgb(100%,100%,100%);fill-opacity:0.916129;" d="M 8.640625 7.449219 L 8.640625 7.621094 L 13.644531 7.621094 C 14.148438 7.621094 14.554688 8.023438 14.554688 8.527344 L 14.554688 8.359375 C 14.554688 7.855469 14.148438 7.449219 13.644531 7.449219 Z M 13.417969 12.628906 C 13.417969 12.878906 13.214844 13.082031 12.960938 13.082031 L 9.777344 13.082031 L 9.777344 13.253906 L 12.960938 13.253906 C 13.214844 13.253906 13.417969 13.050781 13.417969 12.796875 Z M 13.417969 12.628906 "/>
<path style=" stroke:none;fill-rule:nonzero;fill:rgb(0%,0%,0%);fill-opacity:0.235294;" d="M 9.777344 8.578125 L 9.777344 8.941406 L 12.960938 8.941406 C 13.214844 8.941406 13.417969 9.144531 13.417969 9.394531 L 13.417969 9.035156 C 13.417969 8.78125 13.214844 8.578125 12.960938 8.578125 Z M 14.554688 13.355469 C 14.554688 13.859375 14.148438 14.265625 13.644531 14.265625 L 8.640625 14.265625 L 8.640625 14.625 L 13.644531 14.625 C 14.148438 14.625 14.554688 14.21875 14.554688 13.714844 Z M 14.554688 13.355469 "/>
<path style="fill:none;stroke-width:11.338583;stroke-linecap:square;stroke-linejoin:bevel;stroke:rgb(12.941177%,12.941177%,12.941177%);stroke-opacity:1;stroke-miterlimit:4;" d="M 759.956101 655.17011 L 759.956101 1255.02696 L 1200.05726 1255.02696 C 1244.376581 1255.02696 1280.106885 1219.296655 1280.106885 1174.977334 L 1280.106885 735.219736 C 1280.106885 690.900415 1244.376581 655.17011 1200.05726 655.17011 Z M 859.932242 755.146252 L 1139.934151 755.146252 C 1162.265591 755.146252 1180.130744 773.011404 1180.130744 794.999284 L 1180.130744 1110.731498 C 1180.130744 1132.719378 1162.265591 1150.58453 1139.934151 1150.58453 L 859.932242 1150.58453 Z M 859.932242 755.146252 " transform="matrix(0.0113699,0,0,0.0113699,0,0)"/>
<path style="fill:none;stroke-width:8;stroke-linecap:round;stroke-linejoin:round;stroke:url(#linear3);stroke-dasharray:16,16;stroke-dashoffset:7.200001;stroke-miterlimit:4;" d="M 148.167669 -147.460995 L 148.167669 212.322829 L 391.598968 212.322829 C 397.416594 212.322829 402.143415 207.596008 402.143415 201.778381 L 402.143415 -136.916548 C 402.143415 -142.825074 397.416594 -147.460995 391.598968 -147.460995 Z M 148.167669 -147.460995 " transform="matrix(0.0429729,0,0,0.0429729,0,9.239163)"/>
<path style=" stroke:none;fill-rule:nonzero;fill:url(#linear4);" d="M 3.636719 6.3125 L 5.914062 6.3125 L 5.914062 7.222656 L 3.636719 7.222656 Z M 3.636719 6.3125 "/>
<path style=" stroke:none;fill-rule:nonzero;fill:rgb(0%,0%,0%);fill-opacity:0.235294;" d="M 3.636719 7.222656 L 3.636719 7.5625 L 5.914062 7.5625 L 5.914062 7.222656 Z M 3.636719 7.222656 "/>
<path style=" stroke:none;fill-rule:nonzero;fill:rgb(100%,100%,100%);fill-opacity:0.392157;" d="M 3.636719 6.3125 L 3.636719 6.539062 L 5.914062 6.539062 L 5.914062 6.3125 Z M 3.636719 6.3125 "/>
<path style="fill:none;stroke-width:3;stroke-linecap:round;stroke-linejoin:round;stroke:rgb(12.941177%,12.941177%,12.941177%);stroke-opacity:1;stroke-miterlimit:4;" d="M 84.628282 -20.480177 L 137.623222 -20.480177 L 137.623222 0.699618 L 84.628282 0.699618 Z M 84.628282 -20.480177 " transform="matrix(0.0429729,0,0,0.0429729,-0.0000000143243,7.192592)"/>
<path style=" stroke:none;fill-rule:nonzero;fill:url(#linear5);" d="M 3.636719 13.816406 L 5.914062 13.816406 L 5.914062 14.726562 L 3.636719 14.726562 Z M 3.636719 13.816406 "/>
<path style=" stroke:none;fill-rule:nonzero;fill:rgb(0%,0%,0%);fill-opacity:0.235294;" d="M 3.636719 14.726562 L 3.636719 15.066406 L 5.914062 15.066406 L 5.914062 14.726562 Z M 3.636719 14.726562 "/>
<path style=" stroke:none;fill-rule:nonzero;fill:rgb(100%,100%,100%);fill-opacity:0.392157;" d="M 3.636719 13.816406 L 3.636719 14.042969 L 5.914062 14.042969 L 5.914062 13.816406 Z M 3.636719 13.816406 "/>
<path style="fill:none;stroke-width:3;stroke-linecap:round;stroke-linejoin:round;stroke:rgb(12.941177%,12.941177%,12.941177%);stroke-opacity:1;stroke-miterlimit:4;" d="M 84.628282 -20.485508 L 137.623222 -20.485508 L 137.623222 0.694288 L 84.628282 0.694288 Z M 84.628282 -20.485508 " transform="matrix(0.0429729,0,0,0.0429729,-0.0000000143243,14.696727)"/>
</g>
</svg>
